X: 11025
T: Drying Out
R: reel
M: 4/4
K: Dmajor
FDFG Adcd|G=cGc BGAG|FDFG Adcd|DEFG =cGAF|
FDFG Adcd|G=cGc BGAG|=FDFG _BABF|GEA,B, =CDED:|
D/E/F GA d2 Ad|dcAd eddA|D/E/F GA =c2 Gc|=cBGc eccA|
D/E/F GF D2 FA|d2 Ad fdfd|=c2 Gc =fcec|=cBGc AddA:|

